X:244
T:Polka piquee
R:polka
C:trad.
A:Massif Central
O:France
Z:S. Piron
M:2/2
L:1/4
Q:1/4=210
K:G
B2d2|A/2c/2B/2A/2 BG|A2d2|B/2c/2B/2A/2 G2:|
|:A/2B/2c/2A/2 B A/2G/2|FAAG|A/2B/2c/2A/2 B A/2G/2|FAG2:||
